X:69
T:Coffee
C:Gary Haggerty
M:6/8
R:jig
K:Ador
EAA GAA | cBA eAA | EAA GAA | cBA ABA |
EAA GAA | cBA eAA | cBA ABA | GED A2G :|
|: A,2C EGA | cBA GED | A,2C EGA | cBA ABA |
A,2C EGA | dcc cAG | dcc cAG | EDE A3 :|

